X:1
T:Folk Melody
T:Folk Melody
T:Book I, Op. 12, No. 5 
T:E. Grieg
C:E. Grieg
%%score { ( 1 4 5 ) | ( 2 3 ) }
L:1/8
Q:1/4=92
M:3/4
K:A
V:1 treble nm="Piano" snm="Pno."
V:4 treble 
V:5 treble 
V:2 bass 
V:3 bass 
V:1
"^Con moto"!p! !1!C2- | C>!2!^E !4!G2 A2 | F>!2!F ^E2 FG | (3(!1!ABd{cd} cB!1!Bf | %4
 !3!c>A c2) !1!C2- | C>!2!^E G !>!B2 (3A/B/A/ | F>!3!F ^E2 FD | !2!B,C D2 C>!4!^E | %8
!>(! ((!5![B,C^EG]2 !4![A,F]4))!>)! |!mf! !5!f2{!4!^ef} e!2!c !3!c2 | d2{cd} cA !3!A2 | %11
 A2{GA} GE!3!EG | !4![G,DF]2 [A,CE]4 | (!4!d2{cd} c!1!A !2!G2) | (!4!c2{Bc} B!1!=G !2!F2) | %15
 !4!B2{AB} A!2!F (3^EGF | !1!!3![C-F]2 [C^E] z !4!C2- | C>!2!^E !4!G2 A2 | F>!2!F ^E2 FG | %19
 (3!1!ABd{cd} (cB!1!Bf) | (!3!c>A c2) !1!C2- | C>!2!^E G !>!B2 (3A/B/A/ | F>!3!F ^E2 FD | %23
 !2!B,C D2"^morendo" C>!4!^E |!>(! ((!5![B,C^EG]2 [A,F]4))!>)! |!mf! !5!f2{!4!^ef} e!2!c !3!c2 | %26
 d2{!4!cd} cA !3!A2 | A2{GA} GE!3!EG | !4![G,DF]2 [A,CE]4 | (!4!d2{cd} c!1!A !2!G2) | %30
 (!4!c2{Bc} B!1!=G !2!F2) | !4!B2{AB} A!2!F (3^EGF | !1!!3![C-F]2 [C^E] z !4!C2- | %33
 C>!2!^E !4!G2 A2 | F>!2!F ^E2 FG | (3!1!ABd{cd} (cB!1!Bf) | (!3!c>A c2) !1!C2- | %37
 C>!2!^E G !>!B2 (3A/B/A/ | F>!3!F ^E2 FD | !2!B,C D2"^morendo" C>!4!^E | %40
!>(! ((!5![B,C^EG]2 [A,F]4))!>)! |] %41
V:2
 z2 |!ped! !2![F,,C,]2 !5![^E,B,D]2 [E,B,D]2!ped-up! |!ped! [F,,C,]2 [B,D]2 [B,D]2!ped-up! | %3
!ped! [F,,C,]2[I:staff -1] !5![G,DF]2 [G,DF]2!ped-up! | %4
!ped![I:staff +1] ([F,,C,]2[I:staff -1] [A,CF]2)[I:staff +1] z2!ped-up! | %5
!ped! [F,,C,]2 [^E,B,D]2 [E,B,D]2!ped-up! | [B,D]6 | !3!=G,2 !1!G,!2!F, !1!^E,>^G, | [F,,C,]6 | %9
 (!3!!1![A,C]2 [G,B,]2 [A,C]2) | (!3![F,A,]2 [E,=G,]2 [F,A,]2) | (!3![C,E,]2 [B,,D,]2 [C,E,]2) | %12
 !2![E,,B,,E,]2!ped! !3![A,,E,]4!ped-up! | (!3!A,4 !2!B,2) | (=G,4 ^A,2) | (F,4 ^G,2) | %16
 (!1![C,-A,]2!ped! [C,G,]) z z2!ped-up! |!ped! !2![F,,C,]2 !5![^E,B,D]2 [E,B,D]2!ped-up! | %18
!ped! [F,,C,]2 [B,D]2 [B,D]2!ped-up! |!ped! [F,,C,]2[I:staff -1] !5![G,DF]2 [G,DF]2!ped-up! | %20
!ped![I:staff +1] ([F,,C,]2[I:staff -1] !4![A,CF]2)[I:staff +1] z2!ped-up! | %21
!ped! [F,,C,]2 [^E,B,D]2 [E,B,D]2!ped-up! | [B,D]6 | !3![D,=G,]2 !1![D,F,]2 !1!^E,>^G, | %24
!ped! !2![F,,C,]6!ped-up! | (!3!!1![A,C]2 [G,B,]2 [A,C]2) | (!3![F,A,]2 [E,=G,]2 [F,A,]2) | %27
 (!3![C,E,]2 [B,,D,]2 [C,E,]2) | !2![E,,B,,E,]2!ped! !3![A,,E,]4!ped-up! | (!3!A,4 !2!B,2) | %30
 (=G,4 ^A,2) | (F,4 ^G,2) | (!1![C,-A,]2!ped! [C,G,]) z z2!ped-up! | %33
!ped! !2![F,,C,]2 !5![^E,B,D]2 [E,B,D]2!ped-up! |!ped! [F,,C,]2 [B,D]2 [B,D]2!ped-up! | %35
!ped! [F,,C,]2[I:staff -1] !5![G,DF]2 [G,DF]2!ped-up! | %36
!ped![I:staff +1] ([F,,C,]2[I:staff -1] !4![A,CF]2)[I:staff +1] z2!ped-up! | %37
!ped! [F,,C,]2 [^E,B,D]2 [E,B,D]2!ped-up! | [B,D]6 | !3![D,=G,]2 !1![D,F,]2 !1!^E,>^G, | %40
!ped! !2![F,,C,]6!ped-up! |] %41
V:3
 x2 | x6 | x2 (!3!G,2 F,^E,) | x6 | x6 | x6 | !4!F,2 G,2 F,2 | !5!E,2 !5!B,,2 !4!C,2 | x6 | x6 | %10
 x6 | x6 | x6 | !5!F,6 | !5!E,6 | !5!D,6 | x6 | x6 | x2 (!3!G,2 F,^E,) | x6 | x6 | x6 | %22
 (!4!F,2 G,2 F,2) | !5!=G,,2 !4!B,,2 !3!C,2 | x6 | x6 | x6 | x6 | x6 | !5!F,6 | !5!E,6 | !5!D,6 | %32
 x6 | x6 | x2 (!3!G,2 F,^E,) | x6 | x6 | x6 | (!4!F,2 G,2 F,2) | !5!=G,,2 !4!B,,2 !3!C,2 | x6 |] %41
V:4
 x2 | x6 | x6 | x6 | x6 | x6 | x6 | x6 | x6 | F6 | D6 | A,6 | x6 | x6 | C6 | (B,4 ^B,2) | x6 | x6 | %18
 x6 | x6 | x6 | x6 | x6 | x6 | x6 | F6 | D6 | A,6 | x6 | x6 | C6 | (B,4 ^B,2) | x6 | x6 | x6 | x6 | %36
 x6 | x6 | x6 | x6 | x6 |] %41
V:5
 x2 | x6 | x6 | x6 | x6 | x6 | x6 | x6 | x6 | x6 | x6 | x6 | x6 | !1!D6 | x6 | x6 | x6 | x6 | x6 | %19
 x6 | x6 | x6 | x6 | x6 | x6 | x6 | x6 | x6 | x6 | !1!D6 | x6 | x6 | x6 | x6 | x6 | x6 | x6 | x6 | %38
 x6 | x6 | x6 |] %41

